X:1
T:Title
L:1/8
M:4/4
K:C
V:1 treble nm="Grand Piano"
V:1
 z4 z[Q:1/4=100] C2 D | E3 E- E E2 D | E2 E2- E B2 A | G3 A- A G2 F | E4- E ^C2 C | D3 D- D E2 F | %6
 B2 A2- A c2 A | B3 G- G A2 F | E4- E C2 D | E3 E- E E2 D | E2 E2- E B2 A | G3 A- A G2 F | %12
 E4- E ^C2 C | D3 D- D E2 F | B2 A2- A c2 A | B3 ^G- G A2 G | A4- A A2 B | c3 c- c B2 A | %18
 c2 A2- A A2 B | c3 d- d B2 G | E4- E A2 B | c3 c- c B2 A | B2 d6- |[M:2/4] d2 ed | %24
[M:4/4] c3 B- BBcd | c6 z2 |] %26

